X: 1180
T: Iğdır`ın Al Alması
C: Kâmil Çiftçi
O: Turkey
F: http://compmusic.upf.edu/node/140
N: buselik--turku--yuruksemai_ii--igdirin_al--igdir
N: makam= buselik
N: form= turku
N: usul= yuruksemai_ii = 6/8
M: 6/8
L: 1/16
K: C    
Q: 1/4=150
%%MIDI tuningsystem comma53
c6e2 d2e2d4 c4B4  | B6d2 c2d2c4 B4A4  | \
w:  ARANAĞME  |   | 
A6c2 B2c2B4 A4^G4  | 
w:   | 
A4A4 B4c4 d4e4  | c6e2 d2e2d4 c4B4  | \
w:   |  ARANAĞME  | 
B6d2 c2d2c4 B4A4  | A6c2 B2c2B4 A4^G4  | 
w:   |   | 
A8 e2f2e2d2 c2B2A4  | c4B4 A4B4 A4^G4  | \
w:   |  Iğ dır_ ın  al  al ma  | 
A4z4 d4d4 B4B4  | c4B4 A4B4 A4^G4  | 
w:  sı  ay  ba lam    |  Ye me ye  bal  al ma  | 
A8 e2f2e2d2 c2B2A4  | c4B4 A4B4 A4^G4  | \
w:  sı   SAZ  |  Iğ dır_ ın  al  al ma  | 
A4z4 d4d4 B4B4  | c4B4 A4B4 A4^G4  | 
w:  sı  ay  ba lam    |  Ye me ye  bal  al ma  | 
A8 e2f2e2d2 c2B2A4  | A4e2e6e2d2 c6B2  | \
w:  sı   SAZ  |  Yâr  ge len den  *  son  | 
d4c4 B4c4 d8  | c4B4 A4B4 A4^G4  | 
w:  ra    |  Ya ra mın  sağ  al ma  | 
A4z4 B6c2 d6z2  | c4c2e2 d4d4 c2B6  | \
w:  sı   Ö lü rem   |  ö *  lü rem  *  yâr    | 
B4B2d2 c4c4 B2A6  | c2B4c2 B4B4 A2^G6  | 
w:  Ye *  ti mem  *  yâr   |  ye *  ti mem  *  yâr   | 
A4z4 e4e2f2 e2d2{e}d2c2  | c4d2e2 d4d4 c2B6  | \
w:  yâr   Ay  ba lam_ ay    |  Se *  vi rem  *  yâr   | 
c4c2d2 c4c4 B2A6  | 
w:  se *  vi rem  *  yâr   | 
B4B2c2 B4B4 A2^G6  | A4A2A2 A2A2A4 A8  | \
w:  se *  vi rem  *  yâr   |  yâr    | 
c6e2 d2e2d4 c4B4  | 
w:  ARANAĞME  | 
B6d2 c2d2c4 B4A4  | A6c2 B2c2B4 A4^G4  | \
w:   |   | 
A4A4 B4c4 d4e4  | c6e2 d2e2d4 c4B4  | 
w:   |  ARANAĞME  | 
B6d2 c2d2c4 B4A4  | A6c2 B2c2B4 A4^G4  | \
w:   |   | 
A8 e2f2e2d2 c2B2A4  | 
w:   | 
c4B4 A4B4 A4^G4  | A4z4 d4d4 B4B4  | \
w:  Iğ dır_ ın  al  al ma  |  sı  ay  ba lam    | 
c4B4 A4B4 A4^G4  | A8 e2f2e2d2 c2B2A4  | 
w:  Ye me ye  bal  al ma  |  sı   SAZ  | 
c4B4 A4B4 A4^G4  | A4z4 d4d4 B4B4  | \
w:  Iğ dır_ ın  al  al ma  |  sı  ay  ba lam    | 
c4B4 A4B4 A4^G4  | A8 e2f2e2d2 c2B2A4  | 
w:  Ye me ye  bal  al ma  |  sı   SAZ  | 
A4e2e6e2d2 c6B2  | d4c4 B4c4 d8  | c4B4 A4B4 A4^G4  | \
w:  Yâr  ge len den  *  son  |  ra    |  Ya ra mın  sağ  al ma  | 
A4z4 B6c2 d6z2  | 
w:  sı   Ö lü rem   | 
c4c2e2 d4d4 c2B6  | B4B2d2 c4c4 B2A6  | \
w:  ö *  lü rem  *  yâr    |  Ye *  ti mem  *  yâr   | 
c2B4c2 B4B4 A2^G6  | 
w:  ye *  ti mem  *  yâr   | 
A4z4 e4e2f2 e2d2{e}d2c2  | c4d2e2 d4d4 c2B6  | \
w:  yâr   Ay  ba lam_ ay    |  Se *  vi rem  *  yâr   | 
c4c2d2 c4c4 B2A6  | 
w:  se *  vi rem  *  yâr   | 
B4B2c2 B4B4 A2^G6  | A4A2A2 A2A2A4 A8  | |


